X:1
T:Strength and Stay, 11.10.11.10
T:Strength and Stay, 11.10.11.10
T:John Bacchus Dykes, 1875
T:Public Domain Courtesy of the Cyber Hymnal™
C:John Bacchus Dykes, 1875
Z:Public Domain
Z:Courtesy of the Cyber Hymnal™
%%score ( 1 2 ) ( 3 4 )
L:1/8
M:4/4
K:D
V:1 treble 
V:2 treble 
V:3 bass 
V:4 bass 
V:1
 [DF]4 [DF]2 [DG]2 | [DA]6 [B,B]2 | [CA]2 [CF]2 D2 [DG]2 | (F2 E2) [DF]4 | F4 [^E^G]2 [EG]2 | %5
 [FA]6 [FB]2 | [Ec]2 E2 [DF]2 [D^G]2 | [CA]8 | [EA]4 [EB]2 [Ec]2 | [Dd]4 D2 [CE]2 | %10
 [DF]2 [DF]2 [DG]2 [DA]2 | B4 B4 | [CE]4 [CF]2 [CG]2 | [DA]2 [DB]2 [Dc]2 [Dd]2 | [DF]4 (G2 E2) | %15
 D8 |] %16
V:2
 x8 | x8 | x4 D2 x2 | C4 x4 | F4 x4 | x8 | x2 E2 x4 | x8 | x8 | x4 D2 x2 | x8 | (D2 F2) (E2 D2) | %12
 x8 | x8 | x4 C4 | D8 |] %16
V:3
 [D,A,]4 [C,A,]2 [B,,G,]2 | [A,,F,]6 [G,,G,]2 | [A,,F,]2 [A,,A,]2 [B,,A,]2 [E,G,]2 | %3
 [A,,A,]4 [D,A,]4 | [D,A,]4 [D,B,]2 [D,B,]2 | (=C4 B,2) [=D,A,]2 | [E,A,]2 [E,C]2 [E,C]2 [E,B,]2 | %7
 [A,,A,]8 | [G,C]4 [G,B,]2 [G,A,]2 | A,4 A,4 | [D,A,]2 [C,A,]2 [B,,G,]2 [A,,F,]2 | %11
 (G,2 A,2) [G,B,]4 | A,4 [G,A,]2 [G,A,]2 | [F,A,]2 A,2 ^G,2 G,2 | [A,,A,]4 (A,2 G,2) | [D,F,]8 |] %16
V:4
 x8 | x8 | x8 | x8 | x8 | ^D,6 x2 | x8 | x8 | x8 | (F,2 G,2) (F,2 E,2) | x8 | G,,4 x4 | A,4 x4 | %13
 x2 =F,2 E,2 E,2 | x4 A,,4 | x8 |] %16

